X:1
T:Title
%%score 1 { ( 2 5 ) | ( 3 4 ) }
L:1/8
Q:1/4=100
M:6/8
K:D
V:1 treble nm="Choir Aahs"
V:2 treble nm="Grand Piano"
V:5 treble 
V:3 bass 
V:4 bass 
V:1
 z6 | z6 | F2 F A2 A | G2 G B3 | A2 A d2 d | c2 c B3 | A2 A F2 A | B3 d3 | d6 | z6 |[M:2/4] z4 | %11
 z4 | z4 | z4 | z2 A2 | d2 B2 | c2 A2 | B2 G2- | G2 F2 | G2 A2 | d2 c2 | B2 A2- | A2 E2 | F2 G2 | %24
 A2 B2 | c2 d2- | d2 c2 | B2 A2 | G2 F2 | E2 D2- | D2 z2 | z4 | z4 | z2 A2 | d2 B2 | c2 A2 | %36
 B2 G2- | G2 F2 | G2 A2 | d2 c2 | B2 A2- | A2 E2 | F2 G2 | A2 B2 | c2 d2- | d2 c2 | B2 A2 | G2 F2 | %48
 E2 D2- | D2 z2 |[M:6/8] z6 | z6 | z6 | z6 | z2 F- FFA- | AAG- GGB- | B2 A- AAd- | ddc- ccB- | %58
 B2 A- AAF- | FAB- B2 d- | d2 d- d3- |[M:7/4] d2 z2 z2 z2 z2 z4 |] %62
V:2
 [DFA]A,E AA,E | [DFA]A,E AA,E | [EF]A,F [EA]A,D | .G3 .B3 | [EA]A,A [Ad]Dd | [Gc]Cc [FB]B,B | %6
w: Matlbie~Babcock * * * * *||||||
 [EA]A,A F-[A,F]A | .A3 z3 | [DA]A,E AA,E | AA,E AA,E |[M:2/4] [A,DFA]4- | [A,DFA]2 z2 | z4 | z4 | %14
w: ||||||||
 z2 F2- | [Fd]2 [GB]2 | .[Ec]2 [FA]2 | .[DB]2 G2- | [CG]2 [DF]2 | .[EG]2 [FA]2 | [Bd]2 [Ac]2 | %21
w: |||||||
 [GB]2 [FA]2- | [FA]2 [CE]2 | .[DF]2 .[EG]2 | [CA]2 .[GB]2 | [Ec]2 [Fd]2- | [Fd]2 [Ac]2 | %27
w: ||||||
 [GB]2 [FA]2 | [EG]2 .[A,DF]2 | [G,CE]2 [F,D]2- | [F,D]2 [F,A,D]2 | E[K:treble]A, [A,DFA]2 | %32
w: |||||
 EA, [A,DFA]2 | z2 F2- | [Fd]2 [GB]2 | .[Ec]2 [FA]2 | .[DB]2 G2- | [CG]2 [DF]2 | .[EG]2 [FA]2 | %39
w: |||||||
 [Bd]2 [Ac]2 | [GB]2 [FA]2- | [FA]2 [CE]2 | .[DF]2 .[EG]2 | [CA]2 .[GB]2 | [Ec]2 [Fd]2- | %45
w: ||||||
 [Fd]2 [Ac]2 | [GB]2 [FA]2 | [EG]2 .[A,DF]2 | [G,CE]2 [F,D]2- | [F,D]2 [F,A,D]2 | %50
w: |||||
[M:6/8] EA,[F,D] A,[K:treble]EA | A,E[DFA] A,EA | A,E[DFA] A,EA | A,E[DFA] A,EA | A,E[EF] A,F[EA] | %55
w: |||||
 z2 F z2 B- | B3 z3 | Dd[Gc] Cc[FB] | z3 z2 E | z2 A z3 | B,C[DA] A,EA | %61
w: ||||||
[M:7/4] A,EAA,EAA,E z2 z4 |] %62
w: |
V:3
 z3 .[DF]3 | z3 .[DF]3 | z2 D [F,,F,]3 | z2 D z2 C | z2 D z2 G | z2 F z2 C | z2 E z2 [DF] | %7
 z3 .G3 | z3 .[DF]3 | .[DF]3 .[DF]3 |[M:2/4] D,,2 A,,2- | A,,2 D,,2 | A,,2 D,,2 | A,,2 D,,2 | %14
 A,,2 D,,2 | z A D,,2 | z G D,,2 | z F z D | A,,2 D,,2 | A,,2 z2 | E,,F,, G,,A,, | B,,C, D,E, | %22
 F,G, A,2 | z A, z D | A,,2 z F | A,,2 D,,D,, | E,,F,, G,,A,, | B,,2 D,E, | F,G, z B, | A,,2 D,2- | %30
 D,2 [D,,A,,]2- | [D,,A,,]2 [D,,A,,]2- | [D,,A,,]2 z2 | EA, D,,2 | z A D,,2 | z G D,,2 | z F z D | %37
 A,,2 D,,2 | A,,2 z2 | E,,F,, G,,A,, | B,,C, D,E, | F,G, A,2 | z A, z D | A,,2 z F | A,,2 D,,D,, | %45
 E,,F,, G,,A,, | B,,2 D,E, | F,G, z B, | A,,2 D,2- | D,2 [D,,A,,]2- |[M:6/8] [D,,A,,]2 z z2 [DF] | %51
 z3 z2 [DF] | z3 z2 [DF] | z3 z2 [DF] | z3 z D[F,,F,]- | [F,,F,]2 z z .D2 | z .C2 z .D2 | %57
 z .G2 z .F2 | z .C2 z .E2 | z .[DF]2 z2 G | z3 z2 [DF] | %61
[M:7/4] z2 .[DF]2 z[K:treble] [DF] z2 z2 z4 |] %62
V:4
 [D,,A,,]6 | [D,,A,,]6 | [D,,D,]3 z3 | [E,,E,]3 [G,,G,]3 | [F,,F,]3 [B,,B,]3 | [A,,A,]3 [G,,G,]3 | %6
 [F,,F,]3 [D,,D,]3 | [G,,G,]6 | [D,,D,]6- | [D,,D,]6 |[M:2/4] x4 | x4 | x4 | x4 | x4 | A,,2 z2 | %16
 A,,2 z2 | A,,2 D,,2 | x4 | z A, D,,D,, | x4 | x4 | x4 | A,,2 A,,2 | z2 A,,2 | x4 | x4 | x4 | %28
 z2 A,,2 | x4 | x4 | x4 | z2 D,,2- | D,,2 z2 | A,,2 z2 | A,,2 z2 | A,,2 D,,2 | x4 | z A, D,,D,, | %39
 x4 | x4 | x4 | A,,2 A,,2 | z2 A,,2 | x4 | x4 | x4 | z2 A,,2 | x4 | x4 | %50
[M:6/8] z2 [D,,A,,]- [D,,A,,]3- | [D,,A,,]2 [D,,A,,]- [D,,A,,]3- | [D,,A,,]2 [D,,A,,]- [D,,A,,]3- | %53
 [D,,A,,]2 [D,,A,,]- [D,,A,,]3- | [D,,A,,]2 [D,,D,]- [D,,D,]2 z | z2 [E,,E,]- [E,,E,]2 [G,,G,]- | %56
 [G,,G,]2 [F,,F,]- [F,,F,]2 [B,,B,]- | [B,,B,]2 [A,,A,]- [A,,A,]2 [G,,G,]- | %58
 [G,,G,]2 [F,,F,]- [F,,F,]2 [D,,D,]- | [D,,D,]2 [G,,G,]- [G,,G,]3- | [G,,G,]2 [D,,D,]- [D,,D,]3- | %61
[M:7/4] [D,,D,]2- [D,,D,]6[K:treble] z2 z4 |] %62
V:5
 x6 | x6 | x6 | FEG CB,B | x6 | x6 | z3 .E3 | B-[B,B]D BB,C | x6 | x6 |[M:2/4] x4 | x4 | x4 | x4 | %14
 z2 A2 | x4 | x4 | z2 .E2 | x4 | x4 | x4 | x4 | x4 | x4 | x4 | x4 | x4 | x4 | x4 | x4 | x4 | %31
 x[K:treble] x3 | x4 | z2 A2 | x4 | x4 | z2 .E2 | x4 | x4 | x4 | x4 | x4 | x4 | x4 | x4 | x4 | x4 | %47
 x4 | x4 | x4 |[M:6/8] x4[K:treble] x2 | x6 | x6 | x6 | x6 | A,DG- [EG]GC | B,B[EA] A,A[Ad] | x6 | %58
 B,B[EA] A,AF- | [A,F]AB- [B,B]DB | x6 |[M:7/4] x14 |] %62

